icons/linear-ele-symbol-arrow-upload.svg

<svg xmlns="http://www.w3.org/2000/svg" width="32px" height="32px" viewBox="0 0 32 32" version="1.1">
    <title>linear-ele-symbol-arrow-upload</title>
    <g id="linear-ele-symbol-arrow-upload" stroke-width="1" fill-rule="evenodd">
        <path d="M15.8515331,4.0110178 L15.909968,4.00399798 L16,4 L16.0752385,4.00278786 L16.2007258,4.02024007 L16.3121425,4.04973809 L16.4232215,4.09367336 L16.5207088,4.14599545 L16.625449,4.21968877 L16.7071068,4.29289322 L25.7071068,13.2928932 C26.0976311,13.6834175 26.0976311,14.3165825 25.7071068,14.7071068 C25.3165825,15.0976311 24.6834175,15.0976311 24.2928932,14.7071068 L17,7.415 L17,21 C17,21.5522847 16.5522847,22 16,22 C15.4477153,22 15,21.5522847 15,21 L15,7.415 L7.70710678,14.7071068 C7.34662282,15.0675907 6.77939176,15.0953203 6.38710056,14.7902954 L6.29289322,14.7071068 C5.90236893,14.3165825 5.90236893,13.6834175 6.29289322,13.2928932 L15.2928932,4.29289322 C15.3282873,4.25749917 15.3656744,4.22531295 15.4046934,4.19633458 L15.5159379,4.12467117 L15.628664,4.07122549 L15.734007,4.03584514 L15.8515331,4.0110178 Z M27,26 C27.5522847,26 28,26.4477153 28,27 C28,27.5522847 27.5522847,28 27,28 L5,28 C4.44771525,28 4,27.5522847 4,27 C4,26.4477153 4.44771525,26 5,26 L27,26 Z" id="&#24418;&#29366;" fill-rule="nonzero" />
    </g>
</svg>

<svg xmlns="http://www.w3.org/2000/svg" viewBox="0 0 32 32"><path fill="currentColor" d="m15.852 4.011.058-.007L16 4l.075.003.126.017.111.03.111.044.098.052.104.074.082.073 9 9a1 1 0 0 1-1.414 1.414L17 7.415V21a1 1 0 0 1-2 0V7.415l-7.293 7.292a1 1 0 0 1-1.32.083l-.094-.083a1 1 0 0 1 0-1.414l9-9c.035-.036.073-.068.112-.097l.11-.071.114-.054.105-.035zM27 26a1 1 0 0 1 0 2H5a1 1 0 0 1 0-2z"/></svg>
